X: 3
T: The Dub
R: reel
M: 4/4
L: 1/8
K: Ador
A2 EA G2 EA | GEDB GABG | A2 EA G2 EA | GEDG EAAG |
A2 EA G2 EA | GEDB GABc | dBcA BGAF | GEDG EAAG |


Tune 1975	Setting 15401

